svg/300/outlined/confirmation_number-fill.svg

<svg xmlns="http://www.w3.org/2000/svg" width="48" height="48" viewBox="0 -960 960 960"><path d="M480.013-296.078q9.294 0 15.987-6.706 6.692-6.705 6.692-15.999t-6.706-15.986q-6.705-6.692-15.999-6.692T464-334.756q-6.692 6.706-6.692 16t6.706 15.986q6.705 6.692 15.999 6.692Zm0-161.23q9.294 0 15.987-6.706 6.692-6.705 6.692-15.999T495.986-496q-6.705-6.692-15.999-6.692T464-495.986q-6.692 6.705-6.692 15.999T464.014-464q6.705 6.692 15.999 6.692Zm0-161.231q9.294 0 15.987-6.705 6.692-6.706 6.692-16t-6.706-15.986q-6.705-6.692-15.999-6.692T464-657.216q-6.692 6.705-6.692 15.999t6.706 15.986q6.705 6.692 15.999 6.692Zm322.293 438.538H157.694q-23.75 0-40.721-16.972-16.972-16.971-16.972-40.721v-126.459q37-12.616 60.731-43.847t23.731-72q0-40.769-23.731-72.5t-60.731-43.347v-126.459q0-23.75 16.972-40.721 16.971-16.972 40.721-16.972h644.612q23.75 0 40.721 16.972 16.972 16.971 16.972 40.721v126.459q-37 11.616-60.731 43.347T775.537-480q0 40.769 23.731 72t60.731 43.847v126.459q0 23.75-16.972 40.721-16.971 16.972-40.721 16.972Z"/></svg>

<svg xmlns="http://www.w3.org/2000/svg" width="48" height="48" viewBox="0 -960 960 960"><path d="M480.01-296.08q9.3 0 15.99-6.7 6.69-6.71 6.69-16 0-9.3-6.7-15.99-6.71-6.69-16-6.69-9.3 0-15.99 6.7-6.69 6.71-6.69 16 0 9.3 6.7 15.99 6.71 6.69 16 6.69Zm0-161.23q9.3 0 15.99-6.7 6.69-6.71 6.69-16 0-9.3-6.7-15.99-6.71-6.69-16-6.69-9.3 0-15.99 6.7-6.69 6.71-6.69 16 0 9.3 6.7 15.99 6.71 6.69 16 6.69Zm0-161.23q9.3 0 15.99-6.7 6.69-6.71 6.69-16 0-9.3-6.7-15.99-6.71-6.69-16-6.69-9.3 0-15.99 6.7-6.69 6.71-6.69 16 0 9.3 6.7 15.99 6.71 6.69 16 6.69ZM802.31-180H157.69q-23.75 0-40.72-16.97T100-237.69v-126.46q37-12.62 60.73-43.85 23.73-31.23 23.73-72 0-40.77-23.73-72.5Q137-584.23 100-595.85v-126.46q0-23.75 16.97-40.72T157.69-780h644.62q23.75 0 40.72 16.97T860-722.31v126.46q-37 11.62-60.73 43.35-23.73 31.73-23.73 72.5 0 40.77 23.73 72Q823-376.77 860-364.15v126.46q0 23.75-16.97 40.72T802.31-180Z"/></svg>
